artwork/resources/intui/icons/shell/tool-windows/device-explorer_dark.svg

<svg width="16" height="16" viewBox="0 0 16 16" fill="none" xmlns="http://www.w3.org/2000/svg">
<path d="M6.5 12.5H9.5" stroke="#CED0D6" stroke-linecap="round"/>
<path d="M3.5 13.5V2.5C3.5 1.94772 3.94772 1.5 4.5 1.5H11.5C12.0523 1.5 12.5 1.94772 12.5 2.5V13.5C12.5 14.0523 12.0523 14.5 11.5 14.5H4.5C3.94772 14.5 3.5 14.0523 3.5 13.5Z" stroke="#CED0D6" stroke-linecap="round"/>
<path d="M3.5 10.5H12.5" stroke="#CED0D6" stroke-linecap="round"/>
</svg>

<svg width="16" height="16" viewBox="0 0 16 16" fill="none" xmlns="http://www.w3.org/2000/svg"><path d="M6.5 12.5h3M3.5 13.5v-11a1 1 0 0 1 1-1h7a1 1 0 0 1 1 1v11a1 1 0 0 1-1 1h-7a1 1 0 0 1-1-1zM3.5 10.5h9" stroke="#CED0D6" stroke-linecap="round"/></svg>
